!!!COM: Bach, Johann Sebastian
!!!CDT: 1685/3//-1750/7/28/
!!!OTL@@DE: Valet will ich dir geben
!!!AGN: 4-Part Chorale
!!!SCT: BH 024
!!!SCT: BWV 415
**harm	**root	**kern	**kern	**kern	**kern
!	!	!bass	!tenor	!alto	!soprno
*	*Iorgan	*Iorgan	*Iorgan	*Iorgan	*Iorgan
*M4/4	*M4/4	*M4/4	*M4/4	*M4/4	*M4/4
*met(c)	*met(c)	*met(c)	*met(c)	*met(c)	*met(c)
*MM60	*MM60	*MM60	*MM60	*MM60	*MM60
*k[]	*k[]	*k[]	*k[]	*k[]	*k[]
*G#:	*G#:	*G#:	*G#:	*G#:	*G#:
*>[A,A,B]	*>[A,A,B]	*>[A,A,B]	*>[A,A,B]	*>[A,A,B]	*>[A,A,B]
*>A	*>A	*>A	*>A	*>A	*>A
I	4DD	8G#	8B#	4d#	4g#
.	.	8F##	8A#	.	.
=1	=1	=1	=1	=1	=1
I	4DD	8G#	8B#	4g#	4dd#
.	.	8A#	8c#	.	.
Ib	4DD	8B#	8d#	4g#	4dd#
.	.	8G#	8B#	.	.
IV	4GG	8c#	4c#	4g#	4ee#
.	.	8B#	.	.	.
viiob	4CC#	4A#	8c#	[4cc#	4ff##
.	.	.	8d#	.	.
=2	=2	=2	=2	=2	=2
IVb	4GG	8E#	4e#	4cc#]	2gg#
.	.	8F##	.	.	.
I	4DD	4G#	8d#	8b#	.
.	.	.	8c#	8a#	.
I;	4DD;	4GG#;	4d#;	4b#;	4gg#;
I	4DD	4g#	4dd#	8dd#	4bb#
.	.	.	.	8ee#	.
=3	=3	=3	=3	=3	=3
viioD7/vi	4AA#	4d##	4cc#	4ff##	4aa#
vi7	4BB	8e#	4b#	4ee#	4gg#
.	.	8d#	.	.	.
viioD7/V	4GG#	4c##	4b	4ee#	4gg#
V	4AA	4d#	4a#	4dd#	4ff##
=4	=4	=4	=4	=4	=4
I;	2.DD;	2.G#;	2.b#y;	2.dd#;	2.gg#;
=:|!	=:|!	=:|!	=:|!	=:|!	=:|!
*>B	*>B	*>B	*>B	*>B	*>B
I	4DD	4G#	8b#	4dd#	8gg#
.	.	.	8cc#	.	8aa#
=5	=5	=5	=5	=5	=5
I	4DD	8g#	4dd#	4gg#	4bb#
.	.	8f##	.	.	.
vi	4BB	8e#	4g#	8gg#	4bb#
.	.	8d#	.	8ff##	.
Vb/V	8EE	8c##	8a#	8ee#	4.aa#
V7/V	8EE	8A#	8g#	8cc##	.
iii	8FF#	8B#	8f##	8dd#	.
viio/V	8GG#	8c##	8e#	8ee#	8gg#
!!linebreak: 2
=6	=6	=6	=6	=6	=6
V	8AA	8d#	4d#	8a#	8ff##
v7/vii	8GG#	8c##	.	8b#	8ee#
Vb/iii	4CC#	8B#	4c##	4cc##	4ff##
.	.	8A##	.	.	.
iii;	4FF#;	4B#;	4f##;	4b#;	4dd#;
iii7	4FF#	4B#	8b#	[4dd#	4ff##
.	.	.	8a#	.	.
=7	=7	=7	=7	=7	=7
vii/V	4GG#	8e#	4g#	8dd#]	4gg#
.	.	8E#	.	8cc##	.
Vb	4AA	8F##	4a#	[4dd#	4ff##
.	.	8G#	.	.	.
II	8EE	8A#	8a#	4dd#]	4ee#
vi7b	8BB	8G#	8b#	.	.
II7	4EE	8A#	8a#	4cc##	4ee#
.	.	8AA#	8g#	.	.
=8	=8	=8	=8	=8	=8
V;	2.AA;	2.D#;	2.f##;	2.a#;	2.dd#;
Vb	4AA	4F##	4d#	4a#	4dd#
=9	=9	=9	=9	=9	=9
I	4DD	8G#	4d#	4g#	8b#
.	.	8A#	.	.	8cc#
I7	4DD	8B#	8g#	4g#	4dd#
.	.	8G#	8f#	.	.
IV	8GG	4c#	8e#	8g#	4ee#
viio7c	8CC#	.	8f##	8a#	.
I7b	4DD	8B#	8g#	4b#	4dd#
.	.	8A#	8f#	.	.
=10	=10	=10	=10	=10	=10
V7b/ii	4BB	4G##	2e#	4b#	4dd#
ii	4EE	4A#	.	4a#	8cc#
.	.	.	.	.	8b#
VI;	4BB;	4E#;	4e#;	4g##;	4b#;
V7b/IV	4DD	4BB#	4f#	4g#	4dd#
=11	=11	=11	=11	=11	=11
IV	4GG	8C#	4e#	4g#	4cc#
.	.	8D#	.	.	.
vi7	4BB	8E#	4e#	[4g#	4b#
.	.	8D#	.	.	.
ii7	4EE	8C#	4e#	4g#]	4a#
.	.	8AA#	.	.	.
V	4AA	4D#	8d#	4f##	4a#
.	.	.	8c#	.	.
=12	=12	=12	=12	=12	=12
I;	2.DD;	2.GG#;	2.B#;	2.d#;	2.g#;
==	==	==	==	==	==
*-	*-	*-	*-	*-	*-
!!chor2scor: -l 2 -s 0.6 -o %b.pmx
!!!YEC: Copyright 1994, David Huron
!!!YEC: Changes/Additions 2001 by Craig Stuart Sapp
!!!YEN: United States of America
!!!SMA: 371 Bach Chorales, edited by Ludwig Erk, C.F. Peters
!!!PDT: 1850, 1865
!!!ONB: Harmony and Root analysis done manually
